!!!!SEGMENT: pl-wtm--r-704-m--016_moniuszko-stanislaw--widma-no-10.krn
!!!cenid: 18xx:3071
!!!COM: Moniuszko, Stanisław
!!!COM-rismID: pe30008351
!!!CDT: 1819/05/05-1872/06/04
!!!CNT: Polish
!!!OPR: Widma
!!!OTL: No. 10
!!!OMV: 016
!!!PDT: 1852
!!!AGN: Secular
!!!SMS-siglum: PL-Wtm
!!!SMS-shelfmark: R 704/M
!!!SMS-shelfwork: 001-016 M
!!!SMS-variant:
!!!SMS-altvar:
!!!NIFC-rismSourceID: 1001093778
!!!NIFC-rismChildID: 1001093778
!!!NIFC-islandoraID:
!!!URL-pdf-islandora:
!!!URL-scan:
!!!IIIF:
!!!ONB-nifc: UWAGA: skany 0058-0059. Nie wpisywać tekstu rosyjskiego i samodzielnych dialogów poza krótkimi didaskaliami.
!!!OMD: Allegretto.
!!!AIN: 2 forte 1 soprn
!!!key: E
**kern	**kern	**dynam	**kern	**text	**text	**dynam
*part3	*part2	*part2	*part1	*part1	*part1	*part1
*staff3	*staff2	*	*staff1	*staff1	*staff1	*
*I"[Forte-Piano.]	*I"[Forte-Piano.]	*	*I"Sofia (La fanciulla) 	*	*	*
*	*	*	*I'	*	*	*
*Iforte	*Iforte	*	*Isoprn	*	*	*
*ICklav	*ICklav	*	*ICvox	*	*	*
*clefF4	*clefG2	*	*clefG2	*	*	*
*k[f#c#g#d#]	*k[f#c#g#d#]	*	*k[f#c#g#d#]	*	*	*
*E:	*E:	*	*E:	*	*	*
*M6/8	*M6/8	*	*M6/8	*	*	*
=1	=1	=1	=1	=1	=1	=1
!!LO:TX:t=P:problem:nieczytelny tekst włoski, trudny do rozszyfrowania
!!LO:TX:t=P:problem:p="p."
!!LO:TX:t=P:problem:pp="pp."
!!LO:TX:t=P:problem:f="f."
!	!	!	!LO:TX:a:t=P:problem:znaki: f# zamiast ff#, g# zamiast gg#	!	!	!
!	!	!	!LO:TX:t=No 10. Piosnka Zośi.	!	!	!
!	!	!	!LO:TX:t=Canzone di Sofia:color=red	!	!	!
2.r	(8.e/L	p	2.r	.	.	.
.	16b/L	.	.	.	.	.
.	16cc#/	.	.	.	.	.
.	16ee/JJ	.	.	.	.	.
.	16bb\LL	.	.	.	.	.
.	16ccc#\	.	.	.	.	.
.	16eee\	.	.	.	.	.
.	16ccc#\	.	.	.	.	.
.	16bb\	.	.	.	.	.
.	16ee\JJ	.	.	.	.	.
=2	=2	=2	=2	=2	=2	=2
4r	16cc#/LL	.	2.r	.	.	.
.	16b/	.	.	.	.	.
.	16e/	.	.	.	.	.
.	16b/	.	.	.	.	.
8r	16cc#/	.	.	.	.	.
.	16ee/JJ)	.	.	.	.	.
8BB/L	8dd#L 8d#/	.	.	.	.	.
8C#/	8cc# 8e/	.	.	.	.	.
8D#/J	8bJ 8f#/	.	.	.	.	.
=3	=3	=3	=3	=3	=3	=3
*	*^	*	*	*	*	*
*	*	*^	*	*	*	*	*
*2\right	*	*	*	*	*	*	*color:red	*
!	!	!LO:TX:t=P:problem:mixed beam	!	!	!	!	!	!
2.E\	(8g#/L	(<8e\L	4.ryy	.	8g#/	Tu	Quel-	.
.	8b 8f#/	8d#\	.	.	8b/	nie-	-la	.
.	8a#XJ 8e/	8c#\	.	.	8a#X/	-gdyś	son	.
.	8an/L	8cn</	4.dny\	.	8an/	w wio-	io	.
.	8g#/	8B<\	.	.	8cc#/	-sny	che il	.
.	8f#/J)	8A<\J)	.	.	8b/	po-	vil-	.
*	*v	*v	*v	*	*	*	*	*
!!linebreak:original
=4	=4	=4	=4	=4	=4	=4
.	(<8qb/	.	.	.	.	.
*^	*	*	*	*	*	*
(<8G#/L	2E\	(8.e/L)	.	4.e/	-ran-	-lag-	.
8B/)	.	.	.	.	.	.	.
.	.	16d#/K	.	.	.	.	.
(<8G#/	.	8e/J	.	.	.	.	.
8B/)	.	8.f#L 8.d#/	.	8f#/	-ki,	-gio	.
(8F#/	4ryy	.	.	8e/	naj-	de-	.
.	.	16eK 16c#/	.	.	.	.	.
8B/J)	.	8f#J 8d#/	.	8f#/	-pięk-	-sti-	.
*v	*v	*	*	*	*	*	*
=5	=5	=5	=5	=5	=5	=5
*	*^	*	*	*	*	*
8E/L	8.g#L 8.e/	4.ryy	.	8.g#/L	-niej-	-gno...	.
8B/	.	.	.	.	.	.	.
.	16f##XK 16d#/	.	.	16f##X/Jk	.	.	.
8E/J	8g#J 8e/	.	.	8g#/	-sza	co-	.
8An/L	8.b/L	4.f#X 4.dn\	.	8.b/L	z te-	-me	.
8F#/	.	.	.	.	.	.	.
.	16a#X/K	.	.	16a#X/Jk	.	.	.
8B/J	[<8b/J)	.	.	8b/	-go	piu	.
*	*v	*v	*	*	*	*	*
=6	=6	=6	=6	=6	=6	=6
*^	*	*	*	*	*	*
!LO:TX:t=P:problem:mixed beam	!	!	!	!	!	!	!
(<8G#/L	2.E\	[4.ee 4.b] 4.g# 4.e/	.	[4.ee\	sio-	bel-	.
8B/	.	.	.	.	.	.	.
8e>\J	.	.	.	.	.	.	.
!LO:TX:t=P:problem:mixed beam	!	!	!	!	!	!	!
8f#>\L	.	4ee] 4a/	.	8ee\L]	.	.	.
8B/	.	.	.	16dd#\L	.	.	.
.	.	.	.	16cc#\JJ	.	.	.
8d#>\J)	.	8b 8f#/	.	16b\LL	-ła,	-la,	.
.	.	.	.	16a\JJ	.	.	.
*v	*v	*	*	*	*	*	*
=7	=7	=7	=7	=7	=7	=7
8r	8g#/L	.	8g#/	Zo-	che	.
(8G#/L	(8b 8B/	.	8b/	-sia	sugli	.
8Gn/J	8a#XJ 8c#/	.	8a#X/	pa-	al-	.
8F#/L	8anL 8d#/	.	8an/	-sa-	-bo-	.
8E/	8cc# 8e/	.	8cc#\	-jąc	-ri	.
8D#/J)	8bJ 8f#/)	.	8b\	ba-	di	.
!!linebreak:original
=8	=8	=8	=8	=8	=8	=8
!	!LO:TX:t=P:problem:łuk do 4.e	!	!	!	!	!
.	&(<8qb/	.	.	.	.	.
*^	*	*	*	*	*	*
8E/L	2.EE\	4.e&) 4.G#/	.	4.e/	-ran-	Mag-	.
16BB/L	.	.	.	.	.	.	.
16D#/J	.	.	.	.	.	.	.
[<8E/J	.	.	.	.	.	.	.
.	.	(<8qb/	.	.	.	.	.
8E/L]	.	4.f# 4.B/)	.	4.f#/	-ki,	-gio....	.
16BB/L	.	.	.	.	.	.	.
16D#/J	.	.	.	.	.	.	.
[<8E/J	.	.	.	.	.	.	.
=9	=9	=9	=9	=9	=9	=9	=9
*	*	*^	*	*	*	*	*
!	!LO:TX:t=P:problem:mixed beam	!	!	!	!	!	!	!
*	*	*	*2\right	*	*	*	*	*
8E/]	(>8EE/L	4.g#/	2.e\	.	8.g#/	ska-	pas-	.
2ryy	8E\	.	.	.	.	.	.	.
.	.	.	.	.	16f#/	-cze	-ser	.
.	8D#\J	.	.	.	8g#/	i	so-	.
!	!LO:TX:t=P:problem:mixed beam	!	!	!	!	!	!	!
.	8C#\L	4.a#X/	.	.	8a#X/	śpiè-	-le-	.
.	8FF#/)	.	.	.	8g#X/	-wa	-va	.
8ryy	[8F#\J	.	.	.	8a#/	we-	le a-	.
*v	*v	*	*	*	*	*	*	*
*	*v	*v	*	*	*	*	*
=10	=10	=10	=10	=10	=10	=10
8F#] 8BB\	8b 8d#/	.	(4b/	-so-	-gnel-	.
8r	8r	.	.	.	.	.
8r	8r	.	16a#X/	-ła,	-la	.
*	*	*	*	*	*ij	*
.	.	.	16b/	la,	la,	.
(>8qGG#/	.	.	.	.	.	.
(4.G#\)	8r	.	4ee\)	la,	la,	.
.	8b: 8e: 8B:/	.	.	.	.	.
.	8r	.	16a#/	la,	la,	.
.	.	.	16b/	la,	la,	.
=11	=11	=11	=11	=11	=11	=11
8qAA/	.	.	.	.	.	.
4.A\	8r	.	4dd#\	la,	la,	.
.	8b: 8f#: 8d#: 8B:/	.	.	.	.	.
.	8r	.	16a#X\	la,	la,	.
.	.	.	16b\	la,	la,	.
(>8qGG#/	.	.	.	.	.	.
4.G#\))	8r	.	4ee\	la,	la,	.
.	8b: 8e: 8B:/	.	.	.	.	.
!	!	!	!	!	!	!LO:DY:a
.	8r	.	16a#\	la,	la,	<
.	.	.	16b\	la	la	[[
!!linebreak:original
*	*	*	*	*	*	*
=12	=12	=12	=12	=12	=12	=12
!	!	!	!	!	!	!LO:DY:a
(<4.GG# 4.GGG#/	8r	.	[4.dd#\	la,	la,	f
.	8b#XL 8f# 8d#/	>	.	.	.	.
.	[8b#J [>8f# [8d#/	.	.	.	.	.
4AA 4AAA/	8b#]L 8f#] 8d#/]	.	8dd#\L]	.	.	.
.	8cc# 8e 8c#/	.	8cc#\J	.	.	.
8AA#X 8AAA#X/	8f#J 8e 8c#/	]]	8e/	la,	la,	.
=13	=13	=13	=13	=13	=13	=13
*^	*	*	*	*	*	*
!	!	!	!	!	!	!	!LO:DY:a
8ryy	2.BB 2.BBB/)	8g# 8e 8B/	.	(8g#/	la,	la,	<
!	!	!	!LO:DY:rj	!	!	!	!
8d#>L 8B>\	.	8bbL 8gg# 8b/	p	4b/)	.	.	[
8e> 8c#>\	.	8aa#X 8ff##X/	.	.	.	.	.
!	!	!LO:N:n=2:acc=n#	!	!	!	!	!LO:DY:a
8f#> 8d#>\	.	8aan 8ff#X/	.	(8f#/	la,	la,	<
8g#> 8e>\	.	8gg# 8ee/	.	4b/)	.	.	[
8a>J 8f#>\	.	8ff#J 8dd#/	.	.	.	.	.
*v	*v	*	*	*	*	*	*
=14	=14	=14	=14	=14	=14	=14
!LO:TX:t=P:problem:mixed beam	!	!	!	!	!	!
8E/L	8.eeL 8.g#/	.	4e/	la.	la.	.
*	*	*	*	*	*Xij	*
8g#> 8B>\	.	.	.	.	.	.
.	16b/L	.	.	.	.	.
8E/J	16cc#/	.	8r	.	.	.
.	16ee/JJ	.	.	.	.	.
!LO:TX:t=P:problem:mixed beam	!	!	!	!	!	!
8g#>L 8B>\	16bb\LL	.	4r	.	.	.
.	16ccc#\	.	.	.	.	.
8E/	16eee\	.	.	.	.	.
.	16ccc#\	.	.	.	.	.
8g#J 8B\	16bb\	.	8r	.	.	.
.	16ee\JJ	.	.	.	.	.
=15	=15	=15	=15	=15	=15	=15
!LO:TX:t=P:problem:mixed beam	!	!	!	!	!	!
8E/L	16cc#/LL	.	2.r	.	.	.
.	16b/	.	.	.	.	.
8g#> 8B>\	16e/	.	.	.	.	.
.	16b/	.	.	.	.	.
8E/J	16cc#/	.	.	.	.	.
.	16ee/JJ	.	.	.	.	.
!LO:TX:t=P:problem:mixed beam	!	!	!	!	!	!
8a>L 8B>\	8dd#L 8f#/	.	.	.	.	.
8E/	8cc# 8e/	.	.	.	.	.
8a>J 8B>\	8bJ 8d#/	.	.	.	.	.
!	!LO:TX:b:rj:t=V&colon;S&colon;	!	!	!	!	!
!!pagebreak:original
=16	=16	=16	=16	=16	=16	=16
*	*8va	*	*	*	*	*
!LO:TX:t=P:problem:mixed beam	!	!	!	!	!	!
8E/L	8.ee^</L	.	2.r	.	.	.
8g#> 8B>\	.	.	.	.	.	.
.	16bb/L	.	.	.	.	.
8E/J	16ccc#/	.	.	.	.	.
.	16eee/JJ	.	.	.	.	.
!LO:TX:t=P:problem:mixed beam	!	!	!	!	!	!
8g#>L 8B>\	16bbb\LL	.	.	.	.	.
.	16cccc#\	.	.	.	.	.
8E/	16eeee\	.	.	.	.	.
.	16cccc#\	.	.	.	.	.
8g#>J 8B>\	16bbb\	.	.	.	.	.
.	16eee\JJ	.	.	.	.	.
=17	=17	=17	=17	=17	=17	=17
!LO:TX:t=P:problem:mixed beam	!	!	!	!	!	!
8E/L	16ccc#/LL	.	2.r	.	.	.
.	16bb/	.	.	.	.	.
8g#> 8B>\	16ee/	.	.	.	.	.
.	16bb/	.	.	.	.	.
8E/J	16ccc#/	.	.	.	.	.
.	16eee/JJ	.	.	.	.	.
!LO:TX:t=P:problem:mixed beam	!	!	!	!	!	!
8a>L 8B>\	8ddd#L 8ff#/	.	.	.	.	.
8E/	8ccc# 8ee/	.	.	.	.	.
8a>J 8B>\	8bbJ 8dd#/	.	.	.	.	.
*	*X8va	*	*	*	*	*
=18	=18	=18	=18	=18	=18	=18
*^	*	*	*	*	*	*
*	*	*	*	*	*	*above	*
!LO:TX:t=P:problem:mixed beam	!	!	!	!LO:TX:t=P:problem:t. 18-19 – tekst włoski nad pięciolinią	!	!	!
8e>\L	2.E\	(>8eeL 8g#/	.	(8g#/L	O-	Nel	.
8d#>\	.	8b 8f#/	.	8b/J)	.	.	.
8c#>\	.	8a#XJ 8e/	.	8a#X/	-leś	l’of-	.
8cn/	.	8an/L	.	(8an/L	za	-frir	.
8B/	.	8g#/	.	8cc#/J)	.	.	.
8A/J	.	8f#/J)	.	8b/	go-	mi	.
=19	=19	=19	=19	=19	=19	=19	=19
.	.	(<8qb/	.	.	.	.	.
8G#/L	2.E\	(>8.e/L)	.	4e/	-łąb-	due	.
8B/	.	.	.	.	.	.	.
.	.	16d#/K	.	.	.	.	.
8G#/J	.	8e/J	.	8e/	-ków	co-	.
8B/L	.	8.f#L 8.d#/	.	8.f#/	pa-	-lom-	.
8F#/	.	.	.	.	.	.	.
.	.	16eK 16c#/	.	16e/k	-rę	.	.
8B/J	.	8f#J 8d#/	.	8f#/	chciał	-be	.
!!linebreak:original
*	*	*	*	*	*	*below	*
=20	=20	=20	=20	=20	=20	=20	=20
*	*	*^	*	*	*	*	*
!LO:N:vis=2.	!	!LO:TX:t=P:problem:zakończenie łuku od dołu	!	!	!LO:TX:t=P:problem:t. 20-25 – tekst włoski nad tekstem polskim	!	!	!
8E/L	2.E\	8.g#L 8.e/	4.ryy	.	8.g#/	raz	San	.
8B/	.	.	.	.	.	.	.	.
.	.	16f##XK 16d#/	.	.	16f##X/	po-	dio	.
8E/J	.	8g#J 8e/	.	.	8g#/	-ca-	mi	.
!	!	!	!	!	!LO:TX:t=P:problem:tekst włoski niewyraźny	!	!	!
8A/L	.	8b/L	4.f#X 4.d#\	.	8b/L	-ło-	ch/../e	.
8F#/	.	8a#X/	.	.	8a#X/J	.	.	.
8B/J	.	8b/J)	.	.	8b/	-wać	de’	.
*	*	*v	*v	*	*	*	*	*
=21	=21	=21	=21	=21	=21	=21	=21
!LO:N:vis=2	!	!	!	!	!	!	!
8E/L	2E\	[4.gg#: 4.b: 4.e:/	.	[4.ee\	w u-	ba-	.
8B/	.	.	.	.	.	.	.
8e/J	.	.	.	.	.	.	.
!LO:TX:t=P:problem:mixed beam	!	!	!	!	!	!	!
8f#\L	.	8gg#/L]	.	8ee\L]	.	.	.
8B\	4ryy	16ff#/L	.	16dd#\L	.	.	.
.	.	16ee/	.	16cc#\JJ	.	.	.
8BB/J	.	16dd#/	.	16b\LL	-sta,	-ci..	.
.	.	16cc#/JJ	.	16a\JJ	.	.	.
=22	=22	=22	=22	=22	=22	=22	=22
8r	2.EE\	8bL 8g#/	.	8g#/L	lecz	ma	.
(<8G#/L	.	(8g# 8B/	.	8b/J	.	ta-	.
8Gn/J	.	8a#XJ 8c#/	.	8a#X/	i	-li	.
8F#/L	.	8anL 8d#/	.	8an/L	proź-	offer-	.
8E/	.	8cc# 8e/	.	8cc#/J	.	-te	.
8D#/J)	.	8bJ 8f#/)	.	8b/	-bę	pro-	.
=23	=23	=23	=23	=23	=23	=23	=23
!	!	!LO:TX:t=P:problem:łuk do 4.e	!	!	!	!	!
.	.	&(<8qb/	.	.	.	.	.
8E/L	2.EE\	4.e&) 4.G#/	.	4e/	i	-ca-	.
16BB/L	.	.	.	.	.	.	.
16D#/J	.	.	.	.	.	.	.
[<8E/J	.	.	.	8e/	o-	-ci	.
!	!	!LO:TX:t=P:problem:łuk do 4.f#	!	!	!	!	!
.	.	&(<8qb/	.	.	.	.	.
8E/L]	.	4.f#&) 4.B/	.	8.f#/	-fia-	gio-	.
16BB/L	.	.	.	.	.	.	.
16D#/J	.	.	.	16e/k	-rę	.	.
[<8E/J	.	.	.	8f#/	wy-	-sin	.
!!linebreak:original
=24	=24	=24	=24	=24	=24	=24	=24
*	*	*^	*	*	*	*	*
!LO:TX:t=P:problem:zakończenie ligatury od góry	!LO:TX:t=P:problem:mixed beam	!	!	!	!	!	!	!
8E/]	(>8EE/L	4.g#/	2.e\	.	8.g#/	-śmia-	va-	.
2ryy	8E\	.	.	.	.	.	.	.
.	.	.	.	.	16f#/k	-ła	.	.
.	8D#\J	.	.	.	8g#/	dziew-	-via	.
!	!LO:TX:t=P:problem:mixed beam	!	!	!	!	!	!	!
.	8C#\L	4.a#X/	.	.	8a#X/L	-czy-	non	.
.	8FF#/)	.	.	.	8g#/J	.	.	.
8ryy	[8F#\J	.	.	.	8a#/	-na	sol-	.
*v	*v	*	*	*	*	*	*	*
*	*v	*v	*	*	*	*	*
=25	=25	=25	=25	=25	=25	=25
8F#] 8BB\	8b 8d#/	.	(4b\	pu-	-com-	.
8r	8r	.	.	.	.	.
8r	8r	.	16a#X\	-sta.	-be	.
*	*	*	*	*	*ij	*
.	.	.	16b\	La,	La,	.
(>8qGG#/	.	.	.	.	.	.
4.G#\	8r	.	4ee\)	la,	la,	.
.	8b: 8e: 8B:/	.	.	.	.	.
.	8r	.	16a#\	la,	la,	.
.	.	.	16b\	la,	la,	.
=26	=26	=26	=26	=26	=26	=26
8qAA/	.	.	.	.	.	.
4.A\	8r	.	4dd#\	la,	la,	.
.	8b: 8f#: 8d#: 8B:/	.	.	.	.	.
.	8r	.	16a#X\	la,	la,	.
.	.	.	16b\	la,	la,	.
8qGG#/	.	.	.	.	.	.
4.G#\)	8r	.	4ee\	la,	la,	.
.	8b: 8e: 8B:/	.	.	.	.	.
!	!	!	!	!	!	!LO:DY:a
.	8r	.	16a#\	la,	la,	<
.	.	.	16b\	la,	la,	[[
=27	=27	=27	=27	=27	=27	=27
!	!	!	!	!	!	!LO:DY:a
(<4.GG# 4.GGG#/	8r	f >	[4.dd#\	la,	la,	f
.	8b#XL 8f# 8d#/	.	.	.	.	.
.	[8b#J [>8f# [8d#/	.	.	.	.	.
4AA 4AAA/	8b#]L 8f#] 8d#/]	.	8dd#\L]	.	.	.
.	8cc# 8e 8c#/	.	8cc#\J	.	.	.
8AA#X 8AAA#X/	8f#J 8e 8c#/	]]	8e/	la,	la,	.
!!linebreak:original
*	*	*	*	*	*	*Xij
=28	=28	=28	=28	=28	=28	=28
*^	*	*	*	*	*	*
!	!	!	!	!	!	!	!LO:DY:a
8ryy	2.BB 2.BBB/)	8g# 8e 8B/	.	(8g#/	la,	la,	<
!	!	!	!LO:DY:rj	!	!	!	!
(<8d#>L 8B>\	.	8bbL 8gg# 8b/	p	4b/)	.	.	[
8e> 8c#>\	.	8aa#X 8ff##X/	.	.	.	.	.
!	!	!LO:N:n=2:acc=n#	!	!	!	!	!LO:DY:a
8f#> 8d#>\	.	8aan 8ffn#X/	.	(8f#/	la,	la,	<
8g#> 8e>\	.	8gg# 8ee/	.	4b/)	.	.	[
8a>J 8f#>\)	.	8ff#J 8dd#/	.	.	.	.	.
*v	*v	*	*	*	*	*	*
=29	=29	=29	=29	=29	=29	=29
!LO:TX:t=P:problem:mixed beam	!	!	!	!	!	!
8E/L	8.eeL 8.g#/	.	4e/	la.	la.	.
8g#> 8B>\	.	.	.	.	.	.
*	*8va	*	*	*	*Xij	*
.	16bb/L	.	.	.	.	.
8E/J	16ccc#/	.	8r	.	.	.
.	16eee/JJ	.	.	.	.	.
!LO:TX:t=P:problem:mixed beam	!	!	!	!	!	!
8g#>L 8B>\	16bbb\LL	.	4r	.	.	.
.	16cccc#\	.	.	.	.	.
8E/	16eeee\	.	.	.	.	.
.	16cccc#\	.	.	.	.	.
8g#>J 8B>\	16bbb\	.	8r	.	.	.
.	16eee\JJ	.	.	.	.	.
=30	=30	=30	=30	=30	=30	=30
!LO:TX:t=P:problem:mixed beam	!	!	!	!	!	!
8E/L	16ccc#/LL	.	2.r	.	.	.
.	16bb/	.	.	.	.	.
8g#> 8B>\	16ee/	.	.	.	.	.
.	16bb/	.	.	.	.	.
8E/J	16ccc#/	.	.	.	.	.
.	16eee/JJ	.	.	.	.	.
!LO:TX:t=P:problem:mixed beam	!	!	!	!	!	!
8a>L 8B>\	8ddd#L 8ff#/	.	.	.	.	.
8E/	8ccc# 8ee/	.	.	.	.	.
8a>J 8B>\	8bbJ 8dd#/	.	.	.	.	.
=31	=31	=31	=31	=31	=31	=31
!LO:TX:t=P:problem:mixed beam	!	!	!	!	!	!
8E/L	8.ee^</L	.	2.r	.	.	.
8g#> 8B>\	.	.	.	.	.	.
.	16bb/L	.	.	.	.	.
8E/J	16ccc#/	.	.	.	.	.
.	16eee/JJ	.	.	.	.	.
!LO:TX:t=P:problem:mixed beam	!	!	!	!	!	!
8g#>L 8B>\	16bbb\LL	.	.	.	.	.
.	16cccc#\	.	.	.	.	.
8E/	16eeee\	.	.	.	.	.
.	16cccc#\	.	.	.	.	.
8g#>J 8B>\	16bbb\	.	.	.	.	.
.	16eee\JJ	.	.	.	.	.
!!pagebreak:original
=32	=32	=32	=32	=32	=32	=32
!LO:TX:t=P:problem:mixed beam	!	!	!	!	!	!
8E/L	16ccc#/LL	.	2.r	.	.	.
.	16bb/	.	.	.	.	.
8g#> 8B>\	16ee/	.	.	.	.	.
.	16bb/	.	.	.	.	.
8E/J	16ccc#/	.	.	.	.	.
.	16eee/JJ	.	.	.	.	.
!LO:TX:t=P:problem:mixed beam	!	!	!	!	!	!
8a>L 8B>\	8ddd#L 8ff#/	.	.	.	.	.
8E/	8ccc# 8ee/	.	.	.	.	.
8f#>J 8B>\	8bbJ 8dd#/	.	.	.	.	.
*	*X8va	*	*	*	*	*
=33	=33	=33	=33	=33	=33	=33
!	!LO:TX:t=P:problem:kłopot z poprawnym wyświetleniem łuku	!	!	!	!	!
2.E [2.EE/	&(8eeL 8g#/	.	8g#/	Jó-	Un	.
.	8dd# 8f#/	.	8.b/	-zio	no-	.
.	8cc# 8e/	.	.	.	.	.
.	.	.	16a#X/	dał	-stro	.
.	8b 8d#/	.	8an/	wstąż-	va-	.
.	8a 8c#/	.	8cc#\	-kę	.	.
.	8f#J 8d#/	.	8b\	pas-	rio-	.
=34	=34	=34	=34	=34	=34	=34
2.E 2.EE/]	8g#L 8e/	.	8.e/L	-tèr-	-pin-	.
.	8b 8d#/	.	.	.	.	.
.	.	.	16d#/Jk	.	-to	.
.	8a#XJ 8c#/	.	8e/	-ce,	diè	.
.	8anL 8cn/	.	8.f#/L	An-	Pep-	.
.	8g# 8B/	.	.	.	.	.
.	.	.	16e/Jk	.	-pe	.
.	8f#J 8c/	.	8f#/	-toś	e	.
=35	=35	=35	=35	=35	=35	=35
2.EE/	8eL 8G#</	.	8.g#/L	od-	To-	.
.	8d# 8F#</	.	.	.	.	.
.	.	.	16f#/Jk	.	-nio	.
.	8c#J 8E</	.	8g#/	-dał,	ni	.
.	8B<L 8D#</	.	8.b/L	swo-	offerse	.
.	8E< 8C#</	.	.	.	.	.
.	.	.	16a#X/Jk	.	il	.
.	8F#<J 8D#</&)	.	8b/	-je	suo	.
!!linebreak:original
=36	=36	=36	=36	=36	=36	=36
.	16qqB/LL	.	.	.	.	.
.	16qqe/	.	.	.	.	.
.	16qqb/JJ	.	.	.	.	.
*^	*	*	*	*	*	*
!	!	!	!	!LO:TX:t=P:problem:t. 36-39 – tekst wsłoski nad polskim	!	!	!LO:DY:a
8G#/L	2.E\	((4.ee\	.	(4.gg#\	ser-	co-	p
8B/	.	.	.	.	.	.	.
8e/J	.	.	.	.	.	.	.
!LO:TX:t=P:problem:mixed beam	!	!	!	!	!	!	!
8f#/L	.	16dd#/LL)	.	16ff#\LL)	.	.	.
.	.	16cc#/	.	16ee\	.	.	.
8B/	.	16b/	.	16dd#\	.	.	.
.	.	16a/	.	16cc#\JJ	.	.	.
8dny>\J	.	16g#/	.	16b/LL	-ce,	-re	.
.	.	16f#/JJ)	.	16a/JJ	.	.	.
=37	=37	=37	=37	=37	=37	=37	=37
8r	2.EE\	8e/L	.	8g#/L	lecz.	am-	.
(<8G#/L	.	(8g# 8B/	.	8b/J	.	-bi	.
8Gn/J	.	8a#XJ 8c#/	.	8a#X/	i z	ri-	.
8F#/L	.	8anL 8d#/	.	8an/L	Jó-	-ben-	.
8E/	.	8cc# 8e/	.	8cc#/J	.	-do	.
8D#/J)	.	8bJ 8f#/)	.	8b/	-zia	ho re-	.
=38	=38	=38	=38	=38	=38	=38	=38
!	!	!LO:TX:t=P:problem:łuk do 4.e	!	!	!	!	!
.	.	&(<8qb/	.	.	.	.	.
8E/L	4.EE\	4.e&) 4.G#/	.	4e/	i z	-spin-	.
(<16BB/L	.	.	.	.	.	.	.
16D#/J)	.	.	.	.	.	.	.
[<8E/J	.	.	.	8e/	An-	-to,	.
!	!	!LO:TX:t=P:problem:łuk do 4.f#	!	!	!	!	!
.	.	&(<8qb/	.	.	.	.	.
!	!LO:N:vis=4	!	!	!	!	!	!
8E/L]	4.EE\	4.f#&) 4.B/	.	8.f#/L	-to-	chè	.
(<16BB/L	.	.	.	.	.	.	.
16D#/J)	.	.	.	16e/Jk	.	.	.
[<8E/J	.	.	.	8f#/	-sia	So-	.
=39	=39	=39	=39	=39	=39	=39	=39
*	*	*^	*	*	*	*	*
!	!LO:TX:t=P:problem:błąd wyświetlenia łuku (?)	!	!	!	!	!	!	!
8E/]	(>8EE\L	(4.g#/	2.e\	.	8.g#/	smie-	-fi-	.
2ryy	8E\	.	.	.	.	.	.	.
.	.	.	.	.	16f#/	-je	-a	.
.	8D#\J	.	.	.	8g#/	się	non	.
!	!	!	!	!	!LO:SIC:v:s=8a#/	!	!	!
.	8C#\L	4.a#X/	.	.	8a/	pierzch-	vol-	.
.	8FF#\)	.	.	.	8g#/	-li-	-le	.
8ryy	(8F#\J	.	.	.	8a/	-wa	a-	.
*v	*v	*	*	*	*	*	*	*
*	*v	*v	*	*	*	*	*
!!linebreak:original
=40	=40	=40	=40	=40	=40	=40
!LO:TX:t=P:problem:brak zakończenia łuku	!	!	!	!	!	!
8BB;</)	8b 8d#/)	.	(8.b;\	Zo-	-mo-	.
8r	8r;	.	.	.	.	.
.	.	.	(16ccn)\	-s-	.	.
8r	8r	.	16cc#X\	-sia!	-re	.
*	*	*	*	*	*ij	*
.	.	.	16ddn\	la,	la,	.
(>8qBB/	.	.	.	.	.	.
4.B^\)	8r	.	4ggn\)	la,	la,	.
.	8ggnL 8ddn 8gn'\	.	.	.	.	.
!	!	!	!LO:SIC:v:s=(16cc#\	!	!	!
.	8ggJ 8dd 8g'\	.	(16ccn\	la,	la,	.
.	.	.	16dd\	la,	la,	.
=41	=41	=41	=41	=41	=41	=41
8qCn/	.	.	.	.	.	.
4.cn^\	8r	.	4ff#\)	la,	la,	.
.	8ff#L 8ddn 8a'\	.	.	.	.	.
.	8ff#J 8dd 8a'\	.	(16cc#\	la,	la,	.
.	.	.	16ddn\	la,	la	.
4.B^\	8r	.	4ggn\)	la,	la,	.
.	8ggnL 8ddn 8gn'\	.	.	.	.	.
.	8ggJ 8dd 8g'\	.	(16cc#\	la,	la,	.
.	.	.	16dd\	la,	la,	.
=42	=42	=42	=42	=42	=42	=42
!LO:S:s=1:note:problem:note-level slur	!	!	!	!	!	!LO:HP:a
!LO:S:s=2:note:problem:note-level slur	!	!	!	!	!	!
(>4.cn (>4.Cn\	(8ff#L 8dd#X 8a/	.	[4.ff#\)	la	la	>
.	8a 8f# 8d#X/)	.	.	.	.	]
.	8aJ 8f# 8d#'/	.	.	.	.	.
!LO:S:s=1:note:problem:note-level slur	!	!	!	!	!	!
!LO:S:s=2:note:problem:note-level slur	!	!	!	!	!	!
4.C) 4.CCn/)	8aL 8f# 8d#/	>	8ff#\L]	.	.	.
.	8a 8e/	.	8ee\J	.	.	.
.	8a#XJ 8f# 8e/	]]	8e/	la,	la,	.
=43	=43	=43	=43	=43	=43	=43
!	!	!	!	!	!	!LO:HP:a
4.BB/	8bL 8g# 8e/	.	(8g#/	la,	la,	<
.	8dd# 8f#/	.	4b/)	.	.	[
.	8cc#J 8e/	.	.	.	.	.
!	!	!	!	!	!	!LO:HP:a
4.BB 4.BBB/	8bL 8d#/	.	(8f#/	la,	la,	<
.	8a 8c#/	.	4b/)	.	.	[
.	8f#J 8d# 8A/	.	.	.	.	.
!!linebreak:original
=44	=44	=44	=44	=44	=44	=44
!LO:TX:t=P:problem:mixed beam	!	!	!	!	!	!
8EE/L	(8.e/L	.	4e/	la.	la.	.
8G# 8BB\	.	.	.	.	.	.
.	16b/L	.	.	.	.	.
8EE/J	16cc#/	.	8r	.	.	.
.	16ee/JJ	.	.	.	.	.
!LO:TX:t=P:problem:mixed beam	!	!	!	!	!	!
8G#L 8BB\	16bb\LL	.	4r	.	.	.
.	16ccc#\	.	.	.	.	.
8EE/	16eee\	.	.	.	.	.
.	16ccc#\	.	.	.	.	.
8G#J 8BB\	16bb\	.	8r	.	.	.
.	16ee\JJ	.	.	.	.	.
=45	=45	=45	=45	=45	=45	=45
!LO:TX:t=P:problem:mixed beam	!	!	!	!	!	!
8EE/L	16cc#/LL	.	2.r	.	.	.
.	16b/	.	.	.	.	.
8G# 8BB\	16e/	.	.	.	.	.
.	16b/	.	.	.	.	.
8EE/J	16cc#/	.	.	.	.	.
.	16ee/JJ)	.	.	.	.	.
!LO:TX:t=P:problem:mixed beam	!	!	!	!	!	!
8G#L 8BB\	8dd#L 8f#'/	.	.	.	.	.
8EE/	8cc# 8e'/	.	.	.	.	.
8G#J 8BB\	8bJ 8d#'/	.	.	.	.	.
=46	=46	=46	=46	=46	=46	=46
!LO:TX:t=P:problem:mixed beam	!	!	!	!	!	!
(8EE/L	8.e^\L	.	2.r	.	.	.
8G#J 8BB\)	.	.	.	.	.	.
.	16b\L	.	.	.	.	.
!LO:TX:t=P:problem:mixed beam	!	!	!	!	!	!
(8EE/L	16cc#\	.	.	.	.	.
.	16ee\JJ	.	.	.	.	.
8G#J 8BB\)	16bb\LL	.	.	.	.	.
.	16ccc#\	.	.	.	.	.
!LO:TX:t=P:problem:mixed beam	!	!	!	!	!	!
(8EE/L	16eee\	.	.	.	.	.
.	16ccc#\	.	.	.	.	.
8G#J 8BB\)	16bb\	.	.	.	.	.
.	16gg#\JJ	.	.	.	.	.
=47	=47	=47	=47	=47	=47	=47
!	!LO:TX:t=P:problem:mixed beam	!	!	!	!	!
2.ryy	16ee\LL	.	2.r	.	.	.
.	16cc#\	.	.	.	.	.
.	16b\	.	.	.	.	.
.	16g#\	.	.	.	.	.
.	16e\	.	.	.	.	.
.	16c#</JJ	.	.	.	.	.
.	16B</LL	.	.	.	.	.
.	16G#</	.	.	.	.	.
.	16E</	.	.	.	.	.
.	16C#</	.	.	.	.	.
.	16BB</	.	.	.	.	.
.	16GG#</JJ	.	.	.	.	.
=48	=48	=48	=48	=48	=48	=48
4EE/	4r	pp	2.r	.	.	.
8r	8r	.	.	.	.	.
4.e> 4.B 4.G#;<\	4.gg# 4.ee 4.b 4.g#;/	.	.	.	.	.
!LO:TX:t=P:problem:odwórcona fermata na dole kreski	!LO:TX:b:i:t=fine	!	!	!	!	!
==;	==	==	==;	==	==	==
*-	*-	*-	*-	*-	*-	*-
!!!system-decoration: s1[(s2,s3)]
!!!RDF**kern: > = above
!!!RDF**kern: < = below
!!!RDF**dynam: p = "p."
!!!RDF**dynam: pp = "pp."
!!!RDF**dynam: f = "f."
!!!RDF**kern: N = link
!!!ENC: Katarzyna Serwa
!!!END: 2021-10-12
!!!ENC: Filip Voros
!!!END: 2021-09-17
!!!YEC: Copyright 2022 Narodowy Instytut Fryderyka Chopina (https://polishscores.org)
!!!YEM: License CC-BY-4.0 (https://creativecommons.org/licenses/by/4.0)
